src/assets/icons/dollar.svg

<svg width="14" height="14" viewBox="0 0 14 14" fill="none" xmlns="http://www.w3.org/2000/svg">
<g id="dollar">
<path id="Vector" fill-rule="evenodd" clip-rule="evenodd" d="M7.6 0.6C7.6 0.268629 7.33137 0 7 0C6.66863 0 6.4 0.268629 6.4 0.6V1.6H5.8C4.01553 1.6 2.4 2.85651 2.4 4.6C2.4 6.34349 4.01553 7.6 5.8 7.6H6.4V11.2H3C2.66863 11.2 2.4 11.4686 2.4 11.8C2.4 12.1314 2.66863 12.4 3 12.4H6.4V13.4C6.4 13.7314 6.66863 14 7 14C7.33137 14 7.6 13.7314 7.6 13.4V12.4H8.2C9.98448 12.4 11.6 11.1435 11.6 9.4C11.6 7.65651 9.98448 6.4 8.2 6.4H7.6V2.8H10.2C10.5314 2.8 10.8 2.53137 10.8 2.2C10.8 1.86863 10.5314 1.6 10.2 1.6H7.6V0.6ZM6.4 2.8H5.8C4.49648 2.8 3.6 3.68749 3.6 4.6C3.6 5.51251 4.49648 6.4 5.8 6.4H6.4V2.8ZM7.6 7.6V11.2H8.2C9.50353 11.2 10.4 10.3125 10.4 9.4C10.4 8.48749 9.50353 7.6 8.2 7.6H7.6Z" fill="black"/>
</g>
</svg>

<svg xmlns="http://www.w3.org/2000/svg" fill="none" viewBox="0 0 14 14"><path fill="#000" fill-rule="evenodd" d="M7.6.6a.6.6 0 0 0-1.2 0v1h-.6c-1.784 0-3.4 1.257-3.4 3s1.616 3 3.4 3h.6v3.6H3a.6.6 0 1 0 0 1.2h3.4v1a.6.6 0 1 0 1.2 0v-1h.6c1.784 0 3.4-1.257 3.4-3s-1.616-3-3.4-3h-.6V2.8h2.6a.6.6 0 1 0 0-1.2H7.6zM6.4 2.8h-.6c-1.304 0-2.2.887-2.2 1.8s.896 1.8 2.2 1.8h.6zm1.2 4.8v3.6h.6c1.304 0 2.2-.887 2.2-1.8s-.896-1.8-2.2-1.8z" clip-rule="evenodd"/></svg>
